images/decorative/skills/js-icon.svg

<svg width="512" height="512" fill="none" xmlns="http://www.w3.org/2000/svg"><g fill-rule="evenodd" clip-rule="evenodd" clip-path="url(#a)"><path d="M0 0h512v512H0V0Z" fill="#F7DF1E"/><path d="m134.624 427.865 39.182-23.712c7.559 13.402 14.435 24.741 30.929 24.741 15.81 0 25.778-6.184 25.778-30.24V235.058h48.115v164.276c0 49.835-29.212 72.518-71.831 72.518-38.49 0-60.833-19.935-72.174-43.991M304.762 422.709l39.177-22.683c10.313 16.842 23.717 29.214 47.43 29.214 19.936 0 32.649-9.968 32.649-23.716 0-16.497-13.059-22.34-35.056-31.96l-12.025-5.159c-34.715-14.775-57.743-33.334-57.743-72.515 0-36.087 27.495-63.583 70.457-63.583 30.589 0 52.584 10.655 68.392 38.494l-37.462 24.057c-8.249-14.778-17.182-20.619-30.929-20.619-14.091 0-23.028 8.935-23.028 20.619 0 14.435 8.937 20.279 29.556 29.215l12.028 5.155c40.899 17.529 63.927 35.399 63.927 75.609 0 43.307-34.025 67.019-79.734 67.019-44.679 0-73.55-21.307-87.638-49.147" fill="#000"/></g><defs><clipPath id="a"><path fill="#fff" d="M0 0h512v512H0z"/></clipPath></defs></svg>

<svg width="512" height="512" viewBox="0 0 512 512" fill="none" xmlns="http://www.w3.org/2000/svg">
<g id="Type=Default" clip-path="url(#clip0_335_250)">
<g id="Group">
<path id="Shape" fill-rule="evenodd" clip-rule="evenodd" d="M0 0H512V512H0V0Z" fill="#F7DF1E"/>
<path id="Shape_2" fill-rule="evenodd" clip-rule="evenodd" d="M134.624 427.865L173.806 404.153C181.365 417.555 188.241 428.894 204.735 428.894C220.545 428.894 230.513 422.71 230.513 398.654V235.058H278.628V399.334C278.628 449.169 249.416 471.852 206.797 471.852C168.307 471.852 145.964 451.917 134.623 427.861" fill="black"/>
<path id="Shape_3" fill-rule="evenodd" clip-rule="evenodd" d="M304.762 422.709L343.939 400.026C354.252 416.868 367.656 429.24 391.369 429.24C411.305 429.24 424.018 419.272 424.018 405.524C424.018 389.027 410.959 383.184 388.962 373.564L376.937 368.405C342.222 353.63 319.194 335.071 319.194 295.89C319.194 259.803 346.689 232.307 389.651 232.307C420.24 232.307 442.235 242.962 458.043 270.801L420.581 294.858C412.332 280.08 403.399 274.239 389.652 274.239C375.561 274.239 366.624 283.174 366.624 294.858C366.624 309.293 375.561 315.137 396.18 324.073L408.208 329.228C449.107 346.757 472.135 364.627 472.135 404.837C472.135 448.144 438.11 471.856 392.401 471.856C347.722 471.856 318.851 450.549 304.763 422.709" fill="black"/>
</g>
</g>
<defs>
<clipPath id="clip0_335_250">
<rect width="512" height="512" fill="white"/>
</clipPath>
</defs>
</svg>
